X: 8618
T: Cronin's Slippery Jig
R: slip jig
M: 9/8
K: Eminor
|:B,|E2B BGE BGE|FDF AFd AFD|EFG ABc BGE|e2B AGF E2:|
e/f/|geB geg bge|dAd fdf afd|eBe geg bge|gfe Be^d e3|
eBe g2a bge|dAd fdf afd|e/f/gf edB BAG|B/c/dB AGF E2|

